X:1
T:Title
%%score { 1 | 2 }
L:1/8
M:4/4
K:G
V:1 treble nm="Grand Piano"
V:2 treble 
V:1
 z4 z2[Q:1/4=106] D2 | G2 G2 G2 B2 | d2 d2 d2 D2 | G2 G2 B2 B2 |[M:3/4] [FA]6 |[M:1/4] D2 | %6
[M:4/4] G2 G2 G2 B2 | d2 d2 d2 D2 | G2 G2 [GB]2 [FA]2 |[M:2/4] [B,DG]4 | d4 |[M:4/4] dddd B2 BA | %12
 GGGE D2 D2 | G2 G2 B2 G2 | [FA]4 [Fd]4 | dddd B2 BA | [EG][EG][EG][CE] [B,D]2 [B,D][B,D] | %17
 GGGG [GB][GB][FB][CFA] |[M:3/4] [B,DG]6 |] %19
V:2
 z4 z2 [G,B,]2 | [G,B,D]2 [G,B,D]2 [G,B,D]2 [G,DG]2 | [G,B,G]2 [A,CF]2 [B,DG]2 [A,C]2 | %3
 [G,B,D]2 [G,B,D]2 [G,DG]2 [G,DG]2 |[M:3/4][K:bass] [D,D]6 |[M:1/4] [F,C]2 | %6
[M:4/4] [G,B,D]2 [G,B,D]2 [G,B,D]2[K:treble] [G,DG]2 | [G,B,G]2 [A,CF]2 [B,DG]2 [A,C]2 | %8
 [G,B,D]2 [G,B,D]2 [D,D]2 [D,C]2 |[M:2/4] [G,,G,]4 | [G,B,G]4 | %11
[M:4/4] [G,B,G][G,B,G][G,B,G][G,B,G] [G,DG]2 [G,DG][K:bass][G,CD] | %12
 [G,B,D][G,B,D][G,CE][G,C] [G,B,]2 [G,B,]2 | [G,B,D]2 [G,B,D]2 [G,DG]2[K:bass] [G,B,]2 | %14
 [D,D]4 [D,A,]4 | [G,B,G][G,B,G][G,B,G][G,B,G] [G,DG]2 [G,DG][K:bass][G,B,D] | %16
 [C,C][C,C][C,C][C,G,] [G,,G,]2 [G,,G,][G,,G,] | [G,B,D][G,B,D][G,B,D][G,B,D] [D,D][D,D][D,D]D, | %18
[M:3/4] G,,6 |] %19

